front/src/assets/logo.svg

<?xml version='1.0' encoding='UTF-8'?>
<!-- This file was generated by dvisvgm 2.1.3 -->
<svg height='10.5549pt' version='1.1' viewBox='209.843 -2.28372 31.0918 10.5549' width='31.0918pt' xmlns='http://www.w3.org/2000/svg' fill="white" xmlns:xlink='http://www.w3.org/1999/xlink'>
<defs>
<path d='M2.58032 -3.34745C2.98879 -3.34745 3.98506 -3.32752 4.06476 -2.21171C4.07472 -2.09215 4.08468 -1.96264 4.24408 -1.96264C4.41345 -1.96264 4.41345 -2.10212 4.41345 -2.28144V-4.98132C4.41345 -5.14072 4.41345 -5.30012 4.24408 -5.30012C4.11457 -5.30012 4.07472 -5.2005 4.06476 -5.09091C4.00498 -3.93524 3.3076 -3.73599 2.58032 -3.7061V-5.80822C2.58032 -6.47572 2.76961 -6.47572 3.00872 -6.47572H3.47696C4.75218 -6.47572 5.39975 -5.78829 5.45953 -5.10087C5.46949 -5.02117 5.47945 -4.87173 5.63885 -4.87173C5.80822 -4.87173 5.80822 -5.03113 5.80822 -5.2005V-6.49564C5.80822 -6.80448 5.78829 -6.82441 5.47945 -6.82441H0.478207C0.298879 -6.82441 0.139477 -6.82441 0.139477 -6.64508C0.139477 -6.47572 0.328767 -6.47572 0.408468 -6.47572C0.976339 -6.47572 1.01619 -6.39601 1.01619 -5.90785V-0.916563C1.01619 -0.448319 0.986301 -0.348692 0.458281 -0.348692C0.308842 -0.348692 0.139477 -0.348692 0.139477 -0.179328C0.139477 0 0.298879 0 0.478207 0H3.35741C3.53674 0 3.68618 0 3.68618 -0.179328C3.68618 -0.348692 3.51681 -0.348692 3.3873 -0.348692C2.62017 -0.348692 2.58032 -0.418431 2.58032 -0.946451V-3.34745ZM5.45953 -6.47572V-6.00747C5.32005 -6.15691 5.15068 -6.33624 4.92154 -6.47572H5.45953ZM4.06476 -3.15816C3.91532 -3.34745 3.65629 -3.49689 3.53674 -3.5467C3.72603 -3.63636 3.92528 -3.79577 4.06476 -3.96513V-3.15816ZM1.36488 -5.92777C1.36488 -6.04732 1.36488 -6.29639 1.28518 -6.47572H2.34122C2.23163 -6.24658 2.23163 -5.91781 2.23163 -5.82814V-0.926526C2.23163 -0.777086 2.23163 -0.537983 2.33126 -0.348692H1.28518C1.36488 -0.52802 1.36488 -0.777086 1.36488 -0.896638V-5.92777Z' id='g0-70'/>
<path d='M1.56413 -6.82441C1.38481 -6.82441 1.2254 -6.82441 1.2254 -6.64508C1.2254 -6.47572 1.40473 -6.47572 1.51432 -6.47572C2.20174 -6.47572 2.24159 -6.40598 2.24159 -5.89788V-0.308842C2.24159 -0.139477 2.24159 0.0498132 2.07223 0.219178C1.99253 0.288917 1.83313 0.398506 1.59402 0.398506C1.52428 0.398506 1.2254 0.398506 1.2254 0.288917C1.2254 0.209215 1.26526 0.169365 1.31507 0.119552C1.44458 -0.0199253 1.4944 -0.209215 1.4944 -0.358655C1.4944 -0.767123 1.15567 -1.05604 0.777086 -1.05604S0.0597758 -0.767123 0.0597758 -0.358655C0.0597758 0.268991 0.697385 0.747198 1.66376 0.747198C2.76961 0.747198 3.7061 0.358655 3.85554 -0.86675C3.8655 -0.956413 3.8655 -1.51432 3.8655 -1.83313V-6.01743C3.8655 -6.46575 4.00498 -6.46575 4.57285 -6.47572C4.66252 -6.47572 4.74222 -6.55542 4.74222 -6.64508C4.74222 -6.82441 4.59278 -6.82441 4.41345 -6.82441H1.56413ZM0.86675 0.239103C0.767123 0.18929 0.408468 0.0199253 0.408468 -0.348692C0.408468 -0.607721 0.627646 -0.707347 0.777086 -0.707347C0.946451 -0.707347 1.1457 -0.587796 1.1457 -0.358655C1.1457 -0.209215 1.066 -0.119552 1.02615 -0.0896638C0.986301 -0.0498132 0.896638 0.0498132 0.86675 0.239103ZM2.59029 -5.91781C2.59029 -6.0274 2.59029 -6.29639 2.50062 -6.47572H3.59651C3.51681 -6.29639 3.51681 -6.1071 3.51681 -5.76837V-1.75342C3.51681 -1.45455 3.51681 -0.956413 3.50685 -0.856787C3.42715 -0.348692 3.19801 0.109589 2.44085 0.308842C2.59029 0.0797011 2.59029 -0.109589 2.59029 -0.288917V-5.91781Z' id='g0-74'/>
<path d='M4.64259 -2.09215L2.73973 -6.62516C2.66002 -6.82441 2.65006 -6.82441 2.38107 -6.82441H0.52802C0.348692 -6.82441 0.199253 -6.82441 0.199253 -6.64508C0.199253 -6.47572 0.37858 -6.47572 0.428394 -6.47572C0.547945 -6.47572 0.816936 -6.45579 1.03611 -6.37609V-1.05604C1.03611 -0.846824 1.03611 -0.408468 0.358655 -0.348692C0.169365 -0.328767 0.169365 -0.18929 0.169365 -0.179328C0.169365 0 0.328767 0 0.508095 0H2.0523C2.23163 0 2.38107 0 2.38107 -0.179328C2.38107 -0.268991 2.30137 -0.33873 2.22167 -0.348692C1.45455 -0.408468 1.45455 -0.826899 1.45455 -1.05604V-6.01743L1.46451 -6.0274L3.89539 -0.209215C3.97509 -0.0298879 4.04483 0 4.10461 0C4.22416 0 4.25405 -0.0797011 4.30386 -0.199253L6.74471 -6.0274L6.75467 -6.01743V-1.05604C6.75467 -0.846824 6.75467 -0.408468 6.07721 -0.348692C5.88792 -0.328767 5.88792 -0.18929 5.88792 -0.179328C5.88792 0 6.04732 0 6.22665 0H8.88667C9.066 0 9.21544 0 9.21544 -0.179328C9.21544 -0.268991 9.13574 -0.33873 9.05604 -0.348692C8.28892 -0.408468 8.28892 -0.826899 8.28892 -1.05604V-5.76837C8.28892 -5.97758 8.28892 -6.41594 8.96638 -6.47572C9.066 -6.48568 9.15567 -6.53549 9.15567 -6.64508C9.15567 -6.82441 9.00623 -6.82441 8.8269 -6.82441H6.90411C6.64508 -6.82441 6.62516 -6.82441 6.53549 -6.61519L4.64259 -2.09215ZM4.34371 -1.91283C4.42341 -1.74346 4.43337 -1.7335 4.55293 -1.69365L4.11457 -0.637609H4.09465L1.82316 -6.05729C1.77335 -6.1868 1.69365 -6.35616 1.55417 -6.47572H2.42092L4.34371 -1.91283ZM1.33499 -0.348692H1.16563C1.18555 -0.37858 1.20548 -0.408468 1.2254 -0.428394C1.23537 -0.438356 1.23537 -0.448319 1.24533 -0.458281L1.33499 -0.348692ZM7.10336 -6.47572H8.1594C7.94022 -6.22665 7.94022 -5.96762 7.94022 -5.78829V-1.03611C7.94022 -0.856787 7.94022 -0.597758 8.16936 -0.348692H6.88418C7.10336 -0.597758 7.10336 -0.856787 7.10336 -1.03611V-6.47572Z' id='g0-77'/>
<path d='M4.1345 -6.46575C5.4396 -6.39601 5.92777 -5.54919 5.96762 -5.08095C5.97758 -4.93151 5.98755 -4.78207 6.14695 -4.78207C6.32628 -4.78207 6.32628 -4.95143 6.32628 -5.14072V-6.46575C6.32628 -6.81445 6.28643 -6.82441 5.98755 -6.82441H0.657534C0.348692 -6.82441 0.328767 -6.80448 0.328767 -6.5056V-5.10087C0.328767 -4.94147 0.328767 -4.78207 0.498132 -4.78207S0.67746 -4.96139 0.67746 -4.98132C0.71731 -5.80822 1.46451 -6.40598 2.51059 -6.46575V-0.926526C2.51059 -0.428394 2.47073 -0.348692 1.84309 -0.348692C1.72354 -0.348692 1.54421 -0.348692 1.54421 -0.179328C1.54421 0 1.70361 0 1.88294 0H4.7721C4.95143 0 5.10087 0 5.10087 -0.179328C5.10087 -0.348692 4.93151 -0.348692 4.82192 -0.348692C4.17435 -0.348692 4.1345 -0.418431 4.1345 -0.926526V-6.46575ZM0.67746 -6.47572H1.27522C1.02615 -6.32628 0.816936 -6.12702 0.67746 -5.95766V-6.47572ZM5.97758 -6.47572V-5.9477C5.868 -6.08717 5.63885 -6.30635 5.36986 -6.47572H5.97758ZM2.76961 -0.348692C2.85928 -0.52802 2.85928 -0.777086 2.85928 -0.9066V-6.47572H3.7858V-0.9066C3.7858 -0.777086 3.7858 -0.52802 3.87547 -0.348692H2.76961Z' id='g0-84'/>
<path d='M3.52179 -1.26924H3.28468C3.26376 -1.11582 3.19402 -0.704359 3.10336 -0.63462C3.04757 -0.592777 2.51059 -0.592777 2.41295 -0.592777H1.12976C1.86202 -1.24134 2.1061 -1.43661 2.52453 -1.76438C3.0406 -2.17584 3.52179 -2.60822 3.52179 -3.27073C3.52179 -4.11457 2.78257 -4.63064 1.88991 -4.63064C1.02516 -4.63064 0.439352 -4.02391 0.439352 -3.38232C0.439352 -3.02665 0.739228 -2.99178 0.808966 -2.99178C0.976339 -2.99178 1.17858 -3.11034 1.17858 -3.36139C1.17858 -3.48692 1.12976 -3.73101 0.767123 -3.73101C0.983313 -4.22615 1.45753 -4.37958 1.78531 -4.37958C2.48269 -4.37958 2.84533 -3.83562 2.84533 -3.27073C2.84533 -2.66401 2.41295 -2.18281 2.18979 -1.93176L0.509091 -0.27198C0.439352 -0.209215 0.439352 -0.195268 0.439352 0H3.31258L3.52179 -1.26924Z' id='g1-50'/>
</defs>
<g id='page1'>
<use x='209.843' xlink:href='#g0-84' y='6.61072'/>
<use x='216.485' xlink:href='#g0-70' y='6.61072'/>
<use x='222.573' xlink:href='#g0-74' y='6.61072'/>
<use x='227.554' xlink:href='#g0-77' y='6.61072'/>
<use x='236.963' xlink:href='#g1-50' y='2.21054'/>
</g>
</svg>

<?xml version="1.0" encoding="UTF-8" standalone="no"?>
<svg
   xmlns:dc="http://purl.org/dc/elements/1.1/"
   xmlns:cc="http://creativecommons.org/ns#"
   xmlns:rdf="http://www.w3.org/1999/02/22-rdf-syntax-ns#"
   xmlns:svg="http://www.w3.org/2000/svg"
   xmlns="http://www.w3.org/2000/svg"
   xmlns:xlink="http://www.w3.org/1999/xlink"
   xmlns:sodipodi="http://sodipodi.sourceforge.net/DTD/sodipodi-0.dtd"
   xmlns:inkscape="http://www.inkscape.org/namespaces/inkscape"
   viewBox="209.843 -2.284 30.311995 9.7779996"
   version="1.1"
   id="svg27"
   sodipodi:docname="logo.svg"
   width="30.311995"
   height="9.7779999"
   style="fill:#ffffff"
   inkscape:version="0.92.2 2405546, 2018-03-11">
  <metadata
     id="metadata31">
    <rdf:RDF>
      <cc:Work
         rdf:about="">
        <dc:format>image/svg+xml</dc:format>
        <dc:type
           rdf:resource="http://purl.org/dc/dcmitype/StillImage" />
        <dc:title></dc:title>
      </cc:Work>
    </rdf:RDF>
  </metadata>
  <sodipodi:namedview
     pagecolor="#ffffff"
     bordercolor="#666666"
     borderopacity="1"
     objecttolerance="10"
     gridtolerance="10"
     guidetolerance="10"
     inkscape:pageopacity="0"
     inkscape:pageshadow="2"
     inkscape:window-width="1920"
     inkscape:window-height="1055"
     id="namedview29"
     showgrid="false"
     inkscape:zoom="41.779237"
     inkscape:cx="15.215997"
     inkscape:cy="4.3644999"
     inkscape:window-x="0"
     inkscape:window-y="25"
     inkscape:window-maximized="0"
     inkscape:current-layer="svg27" />
  <defs
     id="defs15">
    <path
       id="b"
       d="m 2.58,-3.347 c 0.409,0 1.405,0.02 1.485,1.135 0.01,0.12 0.02,0.25 0.18,0.25 0.168,0 0.168,-0.14 0.168,-0.32 v -2.7 c 0,-0.159 0,-0.318 -0.169,-0.318 -0.13,0 -0.17,0.1 -0.18,0.21 -0.059,1.155 -0.756,1.354 -1.484,1.384 v -2.102 c 0,-0.668 0.19,-0.668 0.429,-0.668 h 0.468 c 1.275,0 1.923,0.688 1.983,1.375 0.01,0.08 0.02,0.23 0.179,0.23 0.17,0 0.17,-0.16 0.17,-0.33 v -1.295 c 0,-0.308 -0.02,-0.328 -0.33,-0.328 h -5 c -0.18,0 -0.34,0 -0.34,0.179 0,0.17 0.19,0.17 0.27,0.17 0.567,0 0.607,0.079 0.607,0.567 v 4.991 c 0,0.469 -0.03,0.568 -0.558,0.568 -0.15,0 -0.319,0 -0.319,0.17 C 0.14,0 0.3,0 0.48,0 h 2.878 c 0.18,0 0.33,0 0.33,-0.18 0,-0.169 -0.17,-0.169 -0.3,-0.169 -0.767,0 -0.807,-0.07 -0.807,-0.597 v -2.401 z m 2.88,-3.129 v 0.469 A 2.557,2.557 0 0 0 4.922,-6.476 Z M 4.065,-3.158 A 1.51,1.51 0 0 0 3.537,-3.547 c 0.189,-0.09 0.388,-0.249 0.528,-0.418 z m -2.7,-2.77 c 0,-0.12 0,-0.368 -0.08,-0.548 h 1.056 c -0.11,0.23 -0.11,0.558 -0.11,0.648 v 4.901 c 0,0.15 0,0.389 0.1,0.578 H 1.285 c 0.08,-0.179 0.08,-0.428 0.08,-0.548 v -5.03 z"
       inkscape:connector-curvature="0" />
    <path
       id="c"
       d="m 1.564,-6.824 c -0.18,0 -0.339,0 -0.339,0.179 0,0.17 0.18,0.17 0.29,0.17 0.687,0 0.727,0.069 0.727,0.577 v 5.59 c 0,0.169 0,0.358 -0.17,0.527 -0.08,0.07 -0.239,0.18 -0.478,0.18 -0.07,0 -0.369,0 -0.369,-0.11 0,-0.08 0.04,-0.12 0.09,-0.17 A 0.704,0.704 0 0 0 0.777,-1.057 0.704,0.704 0 0 0 0.06,-0.359 c 0,0.629 0.637,1.106 1.604,1.106 1.106,0 2.042,-0.387 2.192,-1.614 0.01,-0.09 0.01,-0.647 0.01,-0.966 v -4.184 c 0,-0.449 0.139,-0.449 0.707,-0.459 0.09,0 0.17,-0.08 0.17,-0.17 0,-0.178 -0.15,-0.178 -0.33,-0.178 z M 0.867,0.239 C 0.767,0.19 0.408,0.02 0.408,-0.349 c 0,-0.259 0.22,-0.358 0.37,-0.358 0.168,0 0.368,0.12 0.368,0.348 0,0.15 -0.08,0.24 -0.12,0.27 -0.04,0.04 -0.13,0.139 -0.16,0.328 z M 2.59,-5.918 c 0,-0.11 0,-0.378 -0.09,-0.558 h 1.097 c -0.08,0.18 -0.08,0.369 -0.08,0.708 v 4.015 c 0,0.298 0,0.797 -0.01,0.896 C 3.427,-0.349 3.198,0.11 2.44,0.31 2.59,0.08 2.59,-0.109 2.59,-0.288 v -5.629 z"
       inkscape:connector-curvature="0" />
    <path
       id="d"
       d="M 4.643,-2.092 2.74,-6.625 c -0.08,-0.2 -0.09,-0.2 -0.359,-0.2 H 0.528 c -0.18,0 -0.329,0 -0.329,0.18 0,0.17 0.18,0.17 0.23,0.17 0.119,0 0.388,0.02 0.607,0.099 v 5.32 c 0,0.21 0,0.648 -0.677,0.707 -0.19,0.02 -0.19,0.16 -0.19,0.17 C 0.17,0 0.33,0 0.51,0 h 1.543 c 0.18,0 0.33,0 0.33,-0.18 0,-0.089 -0.08,-0.159 -0.16,-0.169 -0.767,-0.06 -0.767,-0.478 -0.767,-0.707 v -4.961 l 0.01,-0.01 2.429,5.817 c 0.08,0.18 0.15,0.209 0.21,0.209 0.12,0 0.149,-0.08 0.199,-0.2 l 2.44,-5.827 0.01,0.01 v 4.961 c 0,0.21 0,0.648 -0.677,0.707 -0.19,0.02 -0.19,0.16 -0.19,0.17 0,0.179 0.16,0.179 0.34,0.179 h 2.66 c 0.179,0 0.328,0 0.328,-0.18 C 9.215,-0.27 9.135,-0.34 9.056,-0.35 8.289,-0.41 8.289,-0.828 8.289,-1.057 v -4.712 c 0,-0.21 0,-0.648 0.677,-0.708 0.1,-0.01 0.19,-0.06 0.19,-0.17 0,-0.178 -0.15,-0.178 -0.33,-0.178 H 6.905 c -0.259,0 -0.279,0 -0.369,0.209 z m -0.3,0.18 c 0.08,0.169 0.09,0.178 0.21,0.218 L 4.115,-0.638 H 4.095 L 1.823,-6.058 C 1.773,-6.187 1.693,-6.356 1.554,-6.476 h 0.867 l 1.923,4.563 z M 1.336,-0.35 h -0.17 c 0.02,-0.03 0.04,-0.06 0.06,-0.08 0.01,-0.01 0.01,-0.02 0.02,-0.03 z M 7.104,-6.477 H 8.16 c -0.219,0.25 -0.219,0.508 -0.219,0.688 v 4.752 c 0,0.18 0,0.438 0.23,0.687 H 6.883 c 0.22,-0.249 0.22,-0.508 0.22,-0.687 v -5.44 z"
       inkscape:connector-curvature="0" />
    <path
       id="a"
       d="m 4.135,-6.466 c 1.305,0.07 1.793,0.917 1.833,1.385 0.01,0.15 0.02,0.299 0.179,0.299 0.18,0 0.18,-0.17 0.18,-0.359 v -1.325 c 0,-0.348 -0.04,-0.358 -0.34,-0.358 H 0.658 c -0.308,0 -0.328,0.02 -0.328,0.318 V -5.1 c 0,0.16 0,0.319 0.17,0.319 0.17,0 0.178,-0.18 0.178,-0.2 0.04,-0.826 0.788,-1.424 1.834,-1.484 v 5.54 c 0,0.498 -0.04,0.577 -0.668,0.577 -0.12,0 -0.299,0 -0.299,0.17 0,0.179 0.16,0.179 0.339,0.179 h 2.89 C 4.95,0 5.1,0 5.1,-0.18 c 0,-0.169 -0.17,-0.169 -0.28,-0.169 -0.647,0 -0.686,-0.07 -0.686,-0.578 v -5.539 z m -3.458,-0.01 h 0.598 c -0.249,0.15 -0.458,0.349 -0.598,0.518 z m 5.3,0 v 0.528 A 2.606,2.606 0 0 0 5.37,-6.476 H 5.978 Z M 2.77,-0.349 c 0.09,-0.179 0.09,-0.428 0.09,-0.558 v -5.569 h 0.926 v 5.57 c 0,0.129 0,0.378 0.09,0.557 H 2.77 Z"
       inkscape:connector-curvature="0" />
    <path
       id="e"
       d="M 3.522,-1.27 H 3.285 c -0.021,0.154 -0.091,0.566 -0.182,0.635 -0.055,0.042 -0.592,0.042 -0.69,0.042 H 1.13 c 0.732,-0.648 0.976,-0.844 1.395,-1.171 0.516,-0.412 0.997,-0.844 0.997,-1.507 0,-0.844 -0.74,-1.36 -1.632,-1.36 -0.865,0 -1.45,0.607 -1.45,1.249 0,0.355 0.3,0.39 0.369,0.39 0.167,0 0.37,-0.118 0.37,-0.37 0,-0.125 -0.05,-0.369 -0.412,-0.369 0.216,-0.495 0.69,-0.649 1.018,-0.649 0.698,0 1.06,0.544 1.06,1.11 0,0.606 -0.432,1.087 -0.655,1.338 l -1.68,1.66 C 0.44,-0.209 0.44,-0.195 0.44,0 h 2.873 z"
       inkscape:connector-curvature="0" />
  </defs>
  <use
     x="209.843"
     y="6.6110001"
     xlink:href="#a"
     id="use17"
     width="100%"
     height="100%"
     transform="translate(-0.33000232,0.13600003)" />
  <use
     x="216.485"
     y="6.6110001"
     xlink:href="#b"
     id="use19"
     width="100%"
     height="100%"
     transform="translate(-0.33000232,0.13600003)" />
  <use
     x="222.573"
     y="6.6110001"
     xlink:href="#c"
     id="use21"
     width="100%"
     height="100%"
     transform="translate(-0.33000232,0.13600003)" />
  <use
     x="227.554"
     y="6.6110001"
     xlink:href="#d"
     id="use23"
     width="100%"
     height="100%"
     transform="translate(-0.33000232,0.13600003)" />
  <use
     x="236.963"
     y="2.211"
     xlink:href="#e"
     id="use25"
     width="100%"
     height="100%"
     transform="translate(-0.33000232,0.13600003)" />
</svg>
